X:1
T:James Gibb editions
T:Pange lingua - Bentivoglio
T:#
%%score { 1 | 2 } ( 3 4 )
L:1/8
Q:1/4=76
M:4/4
K:F
V:1 treble nm="Soprano I" snm="S"
V:2 treble 
V:3 treble nm="Alto" snm="A"
V:4 treble 
V:1
"^Pange lingua""^Giulio Bentivoglio\n (1864-1939)""^moderato" A4 A4 | A4"^," G2 B2- | B2 A2 G4 | %3
w: Pan- ge|lin- gua glo\-|* ri- o-|
w: In su-|pre- mae no\-|* cte coe-|
 A4 z4 |!f! c6 c2 | d6 f2 |[M:4/4]!>(! f2 e2 d2 d2!>)! | e4 z4 | e4 e4 | f4 d4 | B6 c2 | d4 d2 z2 | %12
w: si|Cor- po-|ris my-|ste\- * * ri-|um,|San- gui-|ni- sque|pre- ti-|o- si,|
w: nae,|re- cum-|bens cum|fra\- * * tri-|bus,|ob- ser-|va- ta|le- ge|ple- ne|
 z4 A2 B2 | c6 B2 | A4 A4 | B4 z4 | z2 !>!d4 c2 | A6 =B2 | c2 c2 =B4 | A4 z4 |!mf! ^c4 c4 | d4 d4 | %22
w: quem in|mun- do|pre- ti-|um|fru- ctus|ven- tris|ge- ne- ro-|si|Rex ef-|fu- dit|
w: ci- bis|in le-|ga- li-|bus.|ci- bum|tur- bae|du- o- de-|nae|se dat|su- is|
 d6 ^c2 | !fermata!d8 ||"^lento"[Q:1/4=65] (B2 =c2 d4) | !fermata!d8 |] %26
w: gen- ti-|um.|||
w: ma- ni-|bus.|A\- * *|men.|
V:2
 F6 E2 | D4 D2 z2 | E2 F2 (F2 E2) | F4 z4 |!f! A4 G4 | F2 G2 A4 |[M:4/4]!>(! (=B2 c4) B2!>)! | %7
w: Pan- ge|lin- gua|glo- ri- o\- *|si|Cor- po-|ris my- ste\-|* * ri-|
w: In su-|pre- mae|no- cte coe\- *|nae,|re- cum-|bens cum fra\-|* * tri-|
 c4 z4 | (c2 _B2) (A2 G2) | F4 F4 | z2 (G2 F2) G2 | F4 F2 z2 | F2 G2 A2 G2 | (F2 E2 D2 G2- | %14
w: um,|San\- * gui\- *|ni- sque|pre\- * ti-|o- si,|quem in mun- do|pre\- * * *|
w: bus,|ob\- * ser\- *|va- ta|le\- * ge|ple- ne|ci- bis in le-|ga\- * * *|
 G2 E2) ^F4 | G4 z4 | A4 G4 | F4 F4 | E2 A2 (A2 ^G2) | A4 z4 |!mf! (A2 G2) (F2 E2) | F4 F4 | %22
w: * * ti-|um|fru- ctus|ven- tris|ge- ne- ro\- *|si|Rex * ef\- *|fu- dit|
w: * * li-|bus.|ci- bum|tur- bae|du- o- de\- *|nae|se * dat *|su- is|
 (F3 D) E4 | !fermata!^F8 || (G2 A2 B4) | !fermata!A8 |] %26
w: gen\- * ti-|um.|||
w: ma\- * ni-|bus.|A\- * *|men.|
V:3
 D6 C2 | B,4 B,2 z2 | C2 D2 (B,2 C2) | F4 z4 |!f! F4 E4 | D2 E2 (F4 |[M:4/4]!>(! G4 G4!>)! | %7
w: Pan- ge|lin- gua|glo\- * ri- o-|si|Cor- po-|ris my- ste\-|* ri-|
w: In su-|pre- mae|no\- * cte coe-|nae,|re- cum-|bens cum fra\-|* tri-|
 C4 z4 | z8 | D2 C2 B,2 D2 | z2 (_E2 D2) E2 | B,4 B,2 z2 | z4 F2 G2 | A2 (A,2 B,3) C) | D6 D2 | %15
w: um,||San- gui- ni- sque|pre\- * ti-|o- si,|quem in|mun\- * * do|pre- ti-|
w: bus,||ob- ser- va- ta|le\- * ge|ple- ne|ci- bis|in le\- * *|ga- li-|
"^," G,4 (G4- | G2 F2) E4- | E2 C2 D4 | A,3 C E4 | A,4 z4 | z8 |!mf! D2 C2 B,2 A,2 | %22
w: um fru\-|* * ctus|* ven- tris|ge- ne- ro-|si||Rex ef- fu- dit|
w: bus. ci\-|* * bum|* tur- bae|du- o- de-|nae||se dat su- is|
 (G,2 B,2) A,4 | D8 || z4 (D2 E2) | !fermata![D^F]8 |] %26
w: gen\- * ti-|um.|||
w: ma\- * ni-|bus.|A\- *|men.|
V:4
 x8 | x8 | x8 | x8 | x8 | x8 |[M:4/4] x8 | x8 | x8 | x8 | x8 | x8 | x8 | x8 | x8 | x8 | x8 | x8 | %18
 x8 | x8 | x8 | x8 | x8 | x8 || z4 G,4 | x8 |] %26

